X:1
T:Abergeldie Castle [1]
T:Abergeldie Castle [1]
T:Alexander Walker
C:Alexander Walker
L:1/8
M:2/2
K:A
V:1 treble 
V:1
|: e | cAAc ecAc | BEEF GABe | cAAc ecAc | dcBG (A2 A) :: d | ceea face | fdec fBBd | ceea fded | %9
 cABG (A2 A) :| %10

